www/assets/icons/format_bold.svg

<svg width="24" height="24" viewBox="0 0 24 24" xmlns="http://www.w3.org/2000/svg" fill='currentColor'><path d="M15.225 11.79C16.195 11.12 16.875 10.02 16.875 9C16.875 6.74 15.125 5 12.875 5H6.625V19H13.665C15.755 19 17.375 17.3 17.375 15.21C17.375 13.69 16.515 12.39 15.225 11.79ZM9.625 7.5H12.625C13.455 7.5 14.125 8.17 14.125 9C14.125 9.83 13.455 10.5 12.625 10.5H9.625V7.5ZM13.125 16.5H9.625V13.5H13.125C13.955 13.5 14.625 14.17 14.625 15C14.625 15.83 13.955 16.5 13.125 16.5Z"/></svg>

<svg xmlns="http://www.w3.org/2000/svg" width="24" height="24" viewBox="0 0 24 24" fill='currentColor'><path d="M15.225 11.79c.97-.67 1.65-1.77 1.65-2.79 0-2.26-1.75-4-4-4h-6.25v14h7.04c2.09 0 3.71-1.7 3.71-3.79 0-1.52-.86-2.82-2.15-3.42m-5.6-4.29h3c.83 0 1.5.67 1.5 1.5s-.67 1.5-1.5 1.5h-3zm3.5 9h-3.5v-3h3.5c.83 0 1.5.67 1.5 1.5s-.67 1.5-1.5 1.5"/></svg>
